X:290
T:Rip the Calico
R:reel
Z:Transcribed by Dave Marshall
M:C|
K:D
|: d4 defd | edBd egfe | d4 defd | efdB BAA2 :|
|:d~B3 g2fe | d~B3 egfe | d~B3 gefd | efdB BAA2 :|
faaf gefd | edBd egfe | faaf gefd | efdB BAA2 |
faaf gefd | edBd egfe | f~a3 b2af | e3f g2fe ||
